symbols/web/wb_auto/materialsymbolsrounded/wb_auto_wght200gradN25_24px.svg

<svg xmlns="http://www.w3.org/2000/svg" height="24" width="24"><path d="M6 14.975q.125 0 .238-.075.112-.075.162-.2l.625-1.725H9.8l.6 1.7q.05.15.175.225.125.075.25.075.2 0 .325-.175t.025-.35L8.825 8.3q-.05-.125-.15-.2-.1-.075-.25-.075t-.262.075q-.113.075-.138.2L5.65 14.475q-.05.175.063.337.112.163.287.163Zm1.275-2.65 1.075-3h.1l1.075 3Zm1.125 5.55q-2.425 0-4.15-1.712Q2.525 14.45 2.525 12T4.25 7.837Q5.975 6.125 8.4 6.125q1.95 0 3.488 1.15 1.537 1.15 2.087 3l-.425-1.7q-.1-.2.025-.375t.35-.175q.15 0 .263.075.112.075.137.25l1.175 5.125h.075L16.9 8.4q.05-.175.2-.275.15-.1.325-.1.175 0 .313.1.137.1.187.275l1.325 5.075h.05l1.2-5.15q.05-.15.163-.225.112-.075.262-.075.2 0 .338.163.137.162.062.387L19.85 14.6q-.05.15-.2.263-.15.112-.325.112-.175 0-.312-.112-.138-.113-.213-.263l-1.35-5.25h-.075l-1.4 5.25q-.025.15-.163.263-.137.112-.287.112-.175 0-.3-.112-.125-.113-.2-.263l-.875-3.65q.5 2.675-1.237 4.8-1.738 2.125-4.513 2.125Zm0-.925q2.075 0 3.513-1.45 1.437-1.45 1.437-3.5 0-2.075-1.425-3.512Q10.5 7.05 8.4 7.05q-2.05 0-3.5 1.438Q3.45 9.925 3.45 12q0 2.05 1.45 3.5 1.45 1.45 3.5 1.45Zm0-4.95Z"/></svg>

<svg xmlns="http://www.w3.org/2000/svg" height="24" width="24"><path d="M6 14.975Q6.125 14.975 6.238 14.9Q6.35 14.825 6.4 14.7L7.025 12.975H9.8L10.4 14.675Q10.45 14.825 10.575 14.9Q10.7 14.975 10.825 14.975Q11.025 14.975 11.15 14.8Q11.275 14.625 11.175 14.45L8.825 8.3Q8.775 8.175 8.675 8.1Q8.575 8.025 8.425 8.025Q8.275 8.025 8.163 8.1Q8.05 8.175 8.025 8.3L5.65 14.475Q5.6 14.65 5.713 14.812Q5.825 14.975 6 14.975ZM7.275 12.325 8.35 9.325H8.45L9.525 12.325ZM8.4 17.875Q5.975 17.875 4.25 16.163Q2.525 14.45 2.525 12Q2.525 9.55 4.25 7.837Q5.975 6.125 8.4 6.125Q10.35 6.125 11.888 7.275Q13.425 8.425 13.975 10.275L13.55 8.575Q13.45 8.375 13.575 8.2Q13.7 8.025 13.925 8.025Q14.075 8.025 14.188 8.1Q14.3 8.175 14.325 8.35L15.5 13.475H15.575L16.9 8.4Q16.95 8.225 17.1 8.125Q17.25 8.025 17.425 8.025Q17.6 8.025 17.738 8.125Q17.875 8.225 17.925 8.4L19.25 13.475H19.3L20.5 8.325Q20.55 8.175 20.663 8.1Q20.775 8.025 20.925 8.025Q21.125 8.025 21.263 8.188Q21.4 8.35 21.325 8.575L19.85 14.6Q19.8 14.75 19.65 14.863Q19.5 14.975 19.325 14.975Q19.15 14.975 19.013 14.863Q18.875 14.75 18.8 14.6L17.45 9.35H17.375L15.975 14.6Q15.95 14.75 15.812 14.863Q15.675 14.975 15.525 14.975Q15.35 14.975 15.225 14.863Q15.1 14.75 15.025 14.6L14.15 10.95Q14.65 13.625 12.913 15.75Q11.175 17.875 8.4 17.875ZM8.4 16.95Q10.475 16.95 11.913 15.5Q13.35 14.05 13.35 12Q13.35 9.925 11.925 8.488Q10.5 7.05 8.4 7.05Q6.35 7.05 4.9 8.488Q3.45 9.925 3.45 12Q3.45 14.05 4.9 15.5Q6.35 16.95 8.4 16.95ZM8.4 12Q8.4 12 8.4 12Q8.4 12 8.4 12Q8.4 12 8.4 12Q8.4 12 8.4 12Q8.4 12 8.4 12Q8.4 12 8.4 12Q8.4 12 8.4 12Q8.4 12 8.4 12Z"/></svg>
